src/images/codepen.svg

<svg width="30" height="30" xmlns="http://www.w3.org/2000/svg"><path d="M29.555 9.501l-14-9.333a1 1 0 0 0-1.109 0l-14 9.333a1 1 0 0 0-.445.832v9.333a1 1 0 0 0 .445.832l14 9.333a.998.998 0 0 0 1.11 0l14-9.333a1 1 0 0 0 .445-.832v-9.333a1 1 0 0 0-.445-.832h-.001zM15 18.465L9.803 15 15 11.535 20.197 15 15 18.465zm1-8.667v-6.93l11.197 7.465L22 13.798l-6-4zm-2 0l-6 4-5.197-3.465L14 2.868v6.93zM6.197 15L2 17.798v-5.596L6.197 15zM8 16.202l6 4v6.93L2.803 19.667 8 16.202zm8 4l6-4 5.197 3.465L16 27.132v-6.93zM23.803 15L28 12.202v5.596L23.803 15z" fill="#000" fill-rule="nonzero"/></svg>

<?xml version="1.0" encoding="UTF-8"?>
<svg width="30px" height="30px" viewBox="0 0 30 30" version="1.1" xmlns="http://www.w3.org/2000/svg" xmlns:xlink="http://www.w3.org/1999/xlink">
    <!-- Generator: Sketch 51.3 (57544) - http://www.bohemiancoding.com/sketch -->
    <title>codepen</title>
    <desc>Created with Sketch.</desc>
    <defs></defs>
    <g id="Welcome" stroke="none" stroke-width="1" fill="none" fill-rule="evenodd">
        <g id="Desktop-HD" transform="translate(-721.000000, -1583.000000)" fill="#000000" fill-rule="nonzero">
            <g id="Group-3" transform="translate(0.000000, 587.000000)">
                <g id="codepen" transform="translate(721.000000, 996.000000)">
                    <path d="M29.555,9.501 L15.555,0.168 C15.219,-0.056 14.781,-0.056 14.446,0.168 L0.446,9.501 C0.168,9.686 0.001,9.999 0.001,10.333 L0.001,19.666 C0.001,20 0.168,20.313 0.446,20.498 L14.446,29.831 C14.614,29.943 14.807,29.999 15.001,29.999 C15.195,29.999 15.388,29.943 15.556,29.831 L29.556,20.498 C29.834,20.313 30.001,20 30.001,19.666 L30.001,10.333 C30.001,9.999 29.834,9.686 29.556,9.501 L29.555,9.501 Z M15,18.465 L9.803,15 L15,11.535 L20.197,15 L15,18.465 Z M16,9.798 L16,2.868 L27.197,10.333 L22,13.798 L16,9.798 Z M14,9.798 L8,13.798 L2.803,10.333 L14,2.868 L14,9.798 Z M6.197,15 L2,17.798 L2,12.202 L6.197,15 Z M8,16.202 L14,20.202 L14,27.132 L2.803,19.667 L8,16.202 Z M16,20.202 L22,16.202 L27.197,19.667 L16,27.132 L16,20.202 Z M23.803,15 L28,12.202 L28,17.798 L23.803,15 Z" id="Shape"></path>
                </g>
            </g>
        </g>
    </g>
</svg>
